X: 1
T: Up In The Air
R: jig
M: 6/8
L: 1/8
K: Bmin
FBB BAB|c2c AFE|FBB BAB|cBA B2A|
FBB BAB|c2c ABc|def ecA|1 FBB B2A:|2 FBB B2c||
d2d ede|fDB BAB|d2d ede| fDB B3|
dcd ede| fdB def|gfe dBA| FBB B2c|
dcd ede| fgf ecA|fgf ecA|FBB B2A||